X:1
T:Arimathea, 77.77.87
T:Arimathea, 77.77.87
T:Charles F. Roper, 1872
T:Public Domain Courtesy of the Cyber Hymnal™
C:Charles F. Roper, 1872
Z:Public Domain
Z:Courtesy of the Cyber Hymnal™
%%score ( 1 2 ) ( 3 4 )
L:1/8
Q:1/4=130
M:3/4
K:D
V:1 treble 
V:2 treble 
V:3 bass 
V:4 bass 
V:1
 [DF]4 [DF]2 | (G3 F) [DG]2 | [CB]4 [CB]2 | [DA]6 | [Dd]4 [DF]2 | (F3 E) D2 | [CE]4 [CA]2 | [DA]6 | %8
 [DF]4 [DF]2 | [^E^G]4 [EG]2 | [FA]4 [FB]2 | [^Ec]6 | [^Ec]4 [EB]2 | [FA]4 [FB]2 | [D^G]4 [DG]2 | %15
 [CA]6 | A4 A2 | _B4 A2 | [Gc]4 [Gc]2 | [Fd]4 [Ge]2 | [EG]4 [DF]2 | [DB]4 [DE]2 | [CG]4 [CF]2 | %23
 D6 |] %24
V:2
 x6 | D4 x2 | x6 | x6 | x6 | D4 D2 | x6 | x6 | x6 | x6 | x6 | x6 | x6 | x6 | x6 | x6 | A4 A2 | %17
 _B4 A2 | x6 | x6 | x6 | x6 | x6 | D6 |] %24
V:3
 [D,A,]4 [D,A,]2 | (B,3 A,) [D,B,]2 | [D,G,]4 [D,G,]2 | [D,F,]6 | [B,,F,]4 [B,,F,]2 | %5
 [E,^G,]4 [E,G,]2 | [A,,A,]4 [A,,G,]2 | [D,F,]6 | [D,A,]4 [D,A,]2 | [C,B,]4 [C,B,]2 | %10
 [F,A,]4 [D,F,]2 | [C,^G,]6 | [C,C]4 [C,C]2 | [F,C]4 [D,D]2 | [E,B,]4 [E,B,]2 | [A,,A,]6 | %16
 [A,,A,]4 [A,,A,]2 | [_B,,_B,]4 [A,,A,]2 | [E,A,]4 [E,A,]2 | [D,A,]4 [C,A,]2 | [C,A,]4 [D,A,]2 | %21
 [E,^G,]4 [E,G,]2 | [A,,A,]4 [A,,A,]2 | [D,F,]6 |] %24
V:4
 x6 | D,4 x2 | x6 | x6 | x6 | x6 | x6 | x6 | x6 | x6 | x6 | x6 | x6 | x6 | x6 | x6 | x6 | x6 | x6 | %19
 x6 | x6 | x6 | x6 | x6 |] %24

